!!!!SEGMENT: pl-wumfc--n43033_szymanowski-karol--trzy-fragmenty-z-poematow-jana-kasprowicza-op-5-no-2-jestem-i-placze.krn
!!!cenid: 19xx:71
!!!COM: Szymanowski, Karol
!!!COM-rismID: pe30106403
!!!CDT: 1882-1937
!!!CNT: Polish
!!!OTL: Trzy fragmenty z poematów Jana Kasprowicza op. 5
!!!PDT:
!!!AGN: Secular; Song
!!!YEC: Copyright 2022 Narodowy Instytut Fryderyka Chopina (https://polishscores.org)
!!!YEM: License CC-BY-4.0 (https://creativecommons.org/licenses/by/4.0)
!!!SMS-siglum: PL-Wumfc
!!!SMS-shelfmark: N43033
!!!SMS-variant:
!!!SMS-altvar:
!!!SMS-shelfwork: W
!!!NIFC-rismSourceID: 1001173610
!!!NIFC-rismChildID: 1001173610
!!!NIFC-islandoraID: pl-wumfc:9264
!!!URL-pdf-islandora: https://repozytorium.nifc.pl/islandora/object/pl-wumfc%3A9264/datastream/PDF/view
!!!URL-scan: https://polish.musicsources.pl/pl/lokalizacje/galeria/druki-muzyczne/12466/3 @EN{Scan on Polish Music Sources Website} @PL{Skany w portalu Dziedzictwo Muzyki Polskiej w otwartym dostępie}
!!!IIIF:
!!!ONB-nifc:
!!!OMD: Allegro molto, agitato.
!!!AIN: 1 piano 1 vox
!!!key: b-
**kern	**kern	**dynam	**kern	**text	**text	**dynam
*part2	*part2	*part2	*part1	*part1	*part1	*part1
*staff3	*staff2	*	*staff1	*staff1	*staff1	*
*ICklav	*ICklav	*	*ICvox	*	*	*
*Ipiano	*Ipiano	*	*Ivox	*	*	*
*I"PIANO.	*I"PIANO.	*	*I"CANTO.	*	*	*
*clefF4	*clefG2	*	*clefG2	*	*	*
*k[b-e-a-d-g-]	*k[b-e-a-d-g-]	*	*k[b-e-a-d-g-]	*	*	*
*b-:	*b-:	*	*b-:	*	*	*
*M4/4	*M4/4	*	*M4/4	*	*	*
*met(c)	*met(c)	*	*met(c)	*	*	*
!	!	!	!	!	!	!LO:DY:b:rj
8r	8r	.	8ff\	.	Je	sff
=1	=1	=1	=1	=1	=1	=1
*	*	*	*^	*	*	*
4F^^\ 4B- 4d- 4f	4ff^^\ 4bb- 4ddd- 4fff	sff	2ff\	2ryy	Je-	souf-	.
2.r;	2.r;	.	.	.	.	.	.
.	.	.	4ff\	4ryy	-stem!	-fre	.
.	.	.	4r;	8rc	.	.	.
!	!	!	!	!LO:N:cue	!	!	!
.	.	.	.	8ff\	.	Je	.
*	*	*	*v	*v	*	*	*
=2	=2	=2	=2	=2	=2	=2
*	*	*^	*	*	*	*
!	!	!LO:DY:b	!	!LO:TX:t=P:problem=klamra łukowa i 3	!	!	!
12B-\L 12d- 12f	(>12b-\L 12dd- 12ff	ff	.	6ff\	Jes-	souf-	.
12B-\ 12d- 12f	12b-\ 12dd- 12ff	>	>	.	.	.	.
12B-\J 12d- 12f	12b-\J 12dd- 12ff	.	.	6.ff\	-tem	-fre	.
*tremolo	*tremolo	*	*	*	*	*	*
!	!LO:TX:t=P:problem=triolowe tremolo z cyfrą 3:global	!	!	!	!	!	!
12B-\L 12d- 12f	12b-\L 12dd- 12ff	.	.	.	.	.	.
12B-\ 12d- 12f	12b-\ 12dd- 12ff	.	.	.	.	.	.
12B-\J 12d- 12f	12b-\J 12dd- 12ff	]	.	12ff\	i	je	.
12G-\L 12c-X 12e-	12g-\L 12cc-X 12ee-	.	.	4ee-\	pła-	pleu-	.
12G-\ 12c- 12e-	12g-\ 12cc- 12ee-	.	.	.	.	.	.
12G-\J 12c- 12e-	12g-\J 12cc- 12ee-	.	.	.	.	.	.
12G-\L 12c- 12e-	12g-\L 12cc- 12ee-	.	.	4ee-\	-czę,	-re	.
12G-\ 12c- 12e-	12g-\ 12cc- 12ee-	.	.	.	.	.	.
12G-\J 12c- 12e-	12g-\J) 12cc- 12ee-	.	]]	.	.	.	.
*	*	*v	*v	*	*	*	*
=3	=3	=3	=3	=3	=3	=3
!	!	!	!LO:TX:t=P:problem=klamra łukowa i 3	!	!	!
(>12B-\L 12d- 12f	(>12b-\L 12dd- 12ff	.	6ff\	bi-	Je	.
12B-\ 12d- 12f	12b-\ 12dd- 12ff	.	.	.	.	.
12B-\J 12d- 12f	12b-\J 12dd- 12ff	.	6.ff\	-ję	bats	.
12B-\L 12d- 12f	12b-\L 12dd- 12ff	.	.	.	.	.
12B-\ 12d- 12f	12b-\ 12dd- 12ff	.	.	.	.	.
12B-\J 12d- 12f	12b-\J 12dd- 12ff	.	12ff\	skrzy-	des	.
12G-\L 12c-X 12e-	12g-\L 12cc-X 12ee-	.	4ee-\	-dła-	ai-	.
12G-\ 12c- 12e-	12g-\ 12cc- 12ee-	.	.	.	.	.
12G-\J 12c- 12e-	12g-\J 12cc- 12ee-	.	.	.	.	.
12G-\L 12c- 12e-	12g-\L 12cc- 12ee-	.	8ee-\	-mi,	-les	.
12G-\ 12c- 12e-	12g-\ 12cc- 12ee-	.	.	.	.	.
.	.	.	8ee-\	jak	tel	.
12G-\J) 12c- 12e-	12g-\J) 12cc- 12ee-	.	.	.	.	.
=4	=4	=4	=4	=4	=4	=4
(>12E-\L 12B-	(<12e-/L 12g- 12dd-	.	4dd-^\	ptak	un	.
12E-\ 12B-	12e-/ 12g- 12dd-	.	.	.	.	.
12E-\J 12B-	12e-/J 12g- 12dd-	.	.	.	.	.
12E-\L 12B-	12e-/L 12g- 12dd-	.	4dd-\	ten	oi-	.
12E-\ 12B-	12e-/ 12g- 12dd-	.	.	.	.	.
12E-\J 12B-	12e-/J 12g- 12dd-	.	.	.	.	.
12G-\L 12B-	12d-/L 12g- 12b-	.	4b-\	ran-	-seau	.
12G-\ 12B-	12d-/ 12g- 12b-	.	.	.	.	.
12G-\J 12B-	12d-/J 12g- 12b-	.	.	.	.	.
12G-\L 12B-	12d-/L 12g- 12b-	.	8b-\	-ny,	tris-	.
12G-\ 12B-	12d-/ 12g- 12b-	.	.	.	.	.
.	.	.	8ee-\	jak	-te	.
12G-\J) 12B-	12d-/J) 12g- 12b-	.	.	.	.	.
!!LO:LB:g=original
=5	=5	=5	=5	=5	=5	=5
(>12E-\L 12B-	(<12e-/L 12g- 12dd-	.	4dd-^\	ptak	oi-	.
12E-\ 12B-	12e-/ 12g- 12dd-	.	.	.	.	.
12E-\J 12B-	12e-/J 12g- 12dd-	.	.	.	.	.
12E-\L 12B-	12e-/L 12g- 12dd-	.	4dd-\	ten	-seau	.
12E-\ 12B-	12e-/ 12g- 12dd-	.	.	.	.	.
12E-\J 12B-	12e-/J 12g- 12dd-	.	.	.	.	.
12G-\L 12B-	12d-/L 12g- 12b-	.	6b-\	noc-	de	.
12G-\ 12B-	12d-/ 12g- 12b-	.	.	.	.	.
12G-\J 12B-	12d-/J 12g- 12b-	.	6.b-\	-ny,	nuit	.
12G-\L 12B-	12d-/L 12g- 12b-	.	.	.	.	.
12G-\ 12B-	12d-/ 12g- 12b-	.	.	.	.	.
12G-\J) 12B-	12d-/J) 12g- 12b-	.	12b-\	któ-	à	.
=6	=6	=6	=6	=6	=6	=6
(>12En^\L 12B-	(<12dn^/L 12a-	>	4a-/	-re-	qui	.
12E\ 12B-	12d/ 12a-	.	.	.	.	.
12E\J 12B-	12d/J 12a-	.	.	.	.	.
12F\L 12B-	12d/L 12a-	.	4a-/	-mu	l'on	.
12F\ 12B-	12d/ 12a-	.	.	.	.	.
12F\J 12B-	12d/J 12a-	.	.	.	.	.
12A-\L 12c-X	12e-/L 12f	.	4f/	o-	fit	.
12A-\ 12c-	12e-/ 12f	.	.	.	.	.
12A-\J 12c-	12e-/J 12f	.	.	.	.	.
12A-\L 12c-	12e-/L 12f	.	8f/	-kiem	re-	.
12A-\ 12c-	12e-/ 12f	.	.	.	.	.
.	.	.	8b-\	ka-	-gar-	.
12A-\J) 12c-	12e-/J) 12f	]]	.	.	.	.
=7	=7	=7	=7	=7	=7	=7
!	!	!	!LO:TX:t=P:problem=klamra łukowa i 3	!	!	!
(12En^\L 12B-	(<12dn/L 12a-	.	6a-/	-za-	-der	.
12E\ 12B-	12d/ 12a-	.	.	.	.	.
12E\J 12B-	12d/J 12a-	.	6.a-/	-no	de	.
12F\L 12B-	12d/L 12a-	.	.	.	.	.
12F\ 12B-	12d/ 12a-	.	.	.	.	.
12F\J 12B-	12d/J 12a-	.	12a-/	skrwa-	son	.
*Xtremolo	*Xtremolo	*	*	*	*	*
4E-X\) 4B-	4e-/) 4g-	.	4g-/	-wio-	oeil	.
!	!LO:TX:a:i:t=poco rit.	!	!	!	!	!
8r	4r	.	4g-/	-nem	san	.
8CC-X/ 8C-X	.	.	.	.	.	.
!!LO:LB:g=original
*clefG2	*	*	*	*	*	*
=8	=8	=8	=8	=8	=8	=8
!	!	!	!LO:TX:a:i:t=(A piacere)	!	!	!
(>16.f^^/LL 16.an 16.ee-	(32ff^^\LLL 32aan 32fff	sff	4ff^\	pa-	glant	.
.	32eee-\	.	.	.	.	.
.	32aa\	.	.	.	.	.
32f/JJk	32ff\JJJ	.	.	.	.	.
32e-/LLL	32ee-\LLL	.	.	.	.	.
*clefF4	*	*	*	*	*	*
32An/	32an\	.	.	.	.	.
32F/	32f\	.	.	.	.	.
32E-/JJJ	32e-\JJJ	.	.	.	.	.
*	*clefF4	*	*	*	*	*
32AAn/LLL	32An\LLL	.	8.ee-\	-trzeć	le	.
32FF/	32F\	.	.	.	.	.
32EE-/	32E-\	.	.	.	.	.
!	!	!LO:DY:b=2	!	!	!	!
32CC-X/JJJ	32C-X\JJJ	sf	.	.	.	.
8FFF^>/)	8FF^/)	sf	.	.	.	.
.	.	.	16cc-X\	w blask	so-	.
!	!LO:TX:b:i:t=subito	!	!	!	!	!
2r;	2r;	.	(<4b-\	słoń-	-leil	.
.	.	.	8an/)	-ca.	.	.
.	.	.	8r	.	.	.
!!LO:LB:g=original
=9;<	=9	=9	=9;	=9	=9	=9
!	!	!	!LO:TX:a:i:t=Meno mosso\n(Andante mesto)	!	!	!
2FFF/ 2FF	(16B-\KL 16d- 16f	pp	2r	.	.	.
.	8B-\ 8d- 8f	.	.	.	.	.
.	[16B-\Jk [16d- [16f	.	.	.	.	.
.	16B-\KL] 16d-] 16f]	.	.	.	.	.
.	8B-\ 8d- 8f	.	.	.	.	.
.	16B-\Jk) 16d- 16f	.	.	.	.	.
!LO:TX:a:i:t=ten.	!LO:TX:b:i:t=ten.	!	!	!	!	!LO:DY:a
2GG-~/ 2C-X	2E-~\ 2G- 2c-X 2e-	.	8r	.	.	pp
.	.	.	8e-/	A	Et	.
.	.	.	8e-/	u	sous	.
.	.	.	8e-/	mych	mes	.
=10	=10	=10	=10	=10	=10	=10
2FFF/ 2FF	(16B-\KL 16d- 16f	.	4.d-/	stóp	pieds	.
.	8B-\ 8d- 8f	.	.	.	.	.
.	[16B-\Jk [16d- [16f	.	.	.	.	.
.	16B-\KL] 16d-] 16f]	.	.	.	.	.
.	8B-\ 8d- 8f	.	.	.	.	.
.	.	.	8b-\	sa-	on	.
.	16B-\Jk) 16d- 16f	.	.	.	.	.
!LO:TX:a:i:t=ten.	!LO:TX:b:i:t=ten.	!	!	!	!	!
2GG-~/ 2C-X	2E-~\ 2G- 2c-X 2e-	.	8cc-X~\	-mo-	creu-	.
.	.	.	8g-/	-tny	-se	.
.	.	.	8g-/	ko-	un	.
.	.	.	8a-/	-pią	tom-	.
=11	=11	=11	=11	=11	=11	=11
2EEE-/ 2EE-	(>16BB-\KL 16E- 16G- 16B-	.	2b-\	grób,	-beau.	.
.	8BB-\ 8E- 8G- 8B-	.	.	.	.	.
.	[16BB-\Jk [16E- [16G- [16B-	.	.	.	.	.
.	16BB-\KL] 16E-] 16G-] 16B-]	.	.	.	.	.
.	8BB-\ 8E- 8G- 8B-	.	.	.	.	.
.	16BB-\Jk) 16E- 16G- 16B-	.	.	.	.	.
!	!LO:TX:b:i:t=ten.	!	!	!	!	!
[2GGG-/ [2GG-	[2BB-~\ [2E- [2B-	.	4r	.	.	.
.	.	.	8r	.	.	.
.	.	.	8e-/	A	Un	.
=12	=12	=12	=12	=12	=12	=12
1GGG-] 1GG-]	1BB-] 1E-] 1B-]	pp <	4.e-/	czar-	noir	.
.	.	.	8e-/	-na	cor-	.
.	.	.	(8B-~>/L	wro-	-beau	.
.	.	.	8e-/J)	.	.	.
.	.	.	8e-/	-na	du	.
.	.	.	8e-/	na	som-	.
!!LO:LB:g=original
=13	=13	=13	=13	=13	=13	=13
*	*	*	*^	*	*	*
!LO:TX:a:i:t=ten.	!LO:TX:b:i:t=ten.	!	!	!LO:N:vis=4.d-\	!	!	!LO:DY:a
1BBB- 1DD- 1BB-	1D- 1G- 1d-	.	4.d-~/	4d-\	Bo-	-met	<
.	.	.	.	8d-\	.	d'u	.
.	.	[	8d-/	8ryy	-żej	ne	.
.	.	.	4g-~>/	4ryy	mę-	vieil-	.
.	.	.	8g-/	4g-\	-ki	-le	.
.	.	.	8g-/	.	u-	.	.
*	*	*	*v	*v	*	*	*
=14	=14	=14	=14	=14	=14	=14
!LO:TX:a:i:t=ten.	!LO:TX:b:i:t=ten.	!	!LO:TX:t=P:problem=klamra łukowa i 3	!	!	!
1BBB- 1FF 1D-	1D- 1G- 1d-	.	6f/	-siadł-	croix	.
.	.	.	6.f/	-szy	jet-	.
.	.	.	12f/	ra-	-te	.
.	.	.	(8f/L	-mio-	vers	.
.	.	.	8b-/J)	.	.	.
.	.	.	4b-\	-na	les	[
*	*clefG2	*	*	*	*	*
=15	=15	=15	=15	=15	=15	=15
*	*^	*	*	*	*	*
!	!	!	!	!LO:TX:a:i:t=Con passione	!	!	!LO:DY:a:rj
4.AAA-^^/ 4.CC 4.AA-	4.c^^/ 4.f 4.cc	2ryy	f <	4cc\	kra-	cieux	f
.	.	.	.	8.f/	-cze	u-	.
8r	8r	.	.	.	.	.	.
.	.	.	.	16cc\	i	-ne	.
4GGGn^^/ 4GGn	4f^^/	2B-\ 2b-	.	4dd-\	kra-	plain-	.
!	!	!	!	!	!	!	!LO:HP:a
8.GGG-X/L 8.GG-X	8.e-/L	.	.	8.b-\	-cze	-te	<
16FFF/Jk 16FF	16d-/Jk	.	[	16ff\	bez	lu-	.
=16	=16	=16	=16	=16	=16	=16	=16
2.EEE-/ 2.EE-	(2d-/ 2f	2.G-\	ff	2ff^\	koń-	-gu-	[
.	4c/) 4e-	.	.	4g-/	-ca	-bre	.
4r	4r	4ryy	.	8r	.	.	.
.	.	.	.	8ff\	I	Son	.
*	*v	*v	*	*	*	*	*
!!LO:PB:g=original
=17	=17	=17	=17	=17	=17	=17
!	!	!	!	!	!	!LO:DY:a:rj
([8BBn~/L	((4An^^>/ 4e-	mf	4ee-^\	dzio-	bec	mf
32BB/LL]	.	.	.	.	.	.
32C/	.	.	.	.	.	.
32G-/	.	.	.	.	.	.
32F/JJJ	.	.	.	.	.	.
4D-\) 4F	8.B-/L)) 8.d-	>	8dd-\	-bem	.	.
.	.	.	8r	.	.	.
.	16f/Jk	.	.	.	.	.
([8BB~/L	((4A^^>/ 4e-	.	4ee-^\	zmar-	frap-	.
32BB/LL]	.	.	.	.	.	.
32C/	.	.	.	.	.	.
32G-/	.	.	.	.	.	.
32F/JJJ	.	.	.	.	.	.
4D-\) 4F	4B-/)) 4d-	]	8dd-\	-łe	-pe	.
.	.	.	8r	.	.	.
!!LO:LB:g=original
*	*clefF4	*	*	*	*	*
=18	=18	=18	=18	=18	=18	=18
*	*^	*	*	*	*	*
!	!	!	!	!	!	!	!LO:HP:a
8EE-'/L	4G-/ 4B-	2C\ 2c	>	8cc\	roz-	les	>
!	!	!	!	!LO:TX:a:i:t=rallent.	!	!	!
16r	.	.	.	8cc\	-sy-	di-	.
!LO:TX:a:i:t=rallent.	!	!	!	!	!	!	!
(16CC/Jk	.	.	.	.	.	.	.
8FF'/L)	4F/ 4An	.	.	8cc\	-pu-	-vins	.
16r	.	.	.	8b-\	-je	em-	.
(16FFF/Jk	.	.	.	.	.	.	.
2BBB-;/)	2BB-;\ 2F 2B-	2ryy	] pp	4b-\	próch-	-blè-	]
.	.	.	.	4B-;/	-no.	-mes	.
*	*v	*v	*	*	*	*	*
=19||	=19||	=19||	=19||	=19||	=19||	=19||
*k[b-e-a-d-]	*k[b-e-a-d-]	*	*k[b-e-a-d-]	*	*	*
!	!	!	!LO:TX:a:t=L'istesso tempo	!	!	!
[1FFF [1FF	(>8C\ 8A-	pp	1r	.	.	.
!	!LO:TX:b:i:t=legato pesante	!	!	!	!	!
.	4C\ 4A-	.	.	.	.	.
.	4C\ 4A-	.	.	.	.	.
.	4C\ 4A-	.	.	.	.	.
.	[8C\ [8A-	.	.	.	.	.
!!LO:LB:g=original
=20	=20	=20	=20	=20	=20	=20
1FFF] 1FF]	8C\] 8A-]	<	4c/	A	ceux-	.
.	4C\ 4A- 4c	.	.	.	.	.
.	.	.	4.f^^>/	ci	-là	.
.	4C\ 4A- 4c	[	.	.	.	.
.	4C\ 4A- 4c	>	8en/	się	che-	.
.	.	.	8e-X/	wlo-	-mi-	.
.	8C\) 8A- 8c	]	8dn/	-ką	-nent	.
=21	=21	=21	=21	=21	=21	=21
*	*	*	*^	*	*	*
*	*	*^	*	*	*	*	*
8FFF/	(>4BB-\ 4B- 4d-	<	.	4d-X/	8d-\	świe-	dans	.
(>4D-\ 4F 4d-	.	.	.	.	8d-\	.	le	.
!	!LO:TX:b:i:t=ten.	!	!	!	!	!	!	!
.	4.B-\ 4.b-	[ >	.	8b-\	4ryy	-tli-	nim-	.
!	!	!	!LO:HP:a:t=poco cresc.	!	!	!	!	!
4D-\ 4F 4d-	.	.	<	8b-\	.	-stą	-be	.
.	.	.	.	8b-\	4ryy	mgieł	lu-	.
4D-\ 4F 4d-	8An\L 8an	.	.	8b-\	.	sier-	-mi	.
.	8A-X\ 8a-X	.	.	8b-/	4b-\	-pnio-	neux	.
8D-\ [8F [8d-	8Gn\J 8gn	]	.	8b-/	.	-wych	.	.
*	*	*v	*v	*	*	*	*	*
=22	=22	=22	=22	=22	=22	=22	=22
!LO:TX:a:i:t=m.d.	!LO:TX:b:i:t=ten.	!	!	!	!	!	!
8D-\ 8F] 8B- 8d-]	1G-X) 1g-X	.	8dd-/	16dd-\	o-	d'u-	.
.	.	.	.	16dd-\	.	-ne	.
4D-\ 4F 4B- 4d-	.	.	4.g-X/	8ryy	-dzia-	bru-	.
.	.	.	.	4ryy	.	.	.
4D-\ 4F 4B- 4d-	.	>	.	.	.	.	.
.	.	.	8g-/	4ryy	-ni	-me	.
4D-\ 4F 4B- 4d-	.	.	8f/	.	po-	d'au-	.
.	.	.	8en/	8ryy	-wło-	-to-	.
8D-\) 8F 8B- 8d-	.	]	16e-X/	8e-\	-ką,	-mne	.
.	.	.	16e-/	.	jak	.	.
*	*	*	*v	*v	*	*	*
!!LO:LB:g=original
=23	=23	=23	=23	=23	=23	=23
(>4FFF~>/ 4FF	8r	pp <	2d-/	cie-	Om-	.
.	(4En\ 4B- 4d-	.	.	.	.	.
4GGG-X/ 4GG-X	.	.	.	.	.	.
.	4E\ 4B- 4d-	.	.	.	.	.
4FFF/ 4FF	.	.	4c/	-nie	-bres	.
.	4E\ 4B- 4c	.	.	.	.	.
4BBB-^^/) 4BB-	.	.	4cc\	do	re-	.
.	8E\) 8B- 8c	[	.	.	.	.
=24	=24	=24	=24	=24	=24	=24
(>4FFF/ 4FF	8r	.	4b-\	wiel-	-veu-	.
.	(4D-\ 4F 4B-	.	.	.	.	.
4GGG-X/ 4GG-X	.	.	8b-\	-kiej	-ses	.
.	4D-\ 4F 4B-	.	8b-\	się	qui	.
4FFF/ 4FF	.	.	4a-/	wlo-	cher-	.
.	4D-\ 4F 4A-	.	.	.	.	.
4CC^^/) 4C	.	.	8a-/	-ką	-chent-	.
.	8D-\) 8F 8A-	.	8a-/	mo-	-leur	.
=25	=25	=25	=25	=25	=25	=25
(>4FFF/ 4FF	8r	<	2gn/	-gi-	tom-	.
.	(4BB-\ 4F 4G	.	.	.	.	.
4GGGn/ 4GGn	.	.	.	.	.	.
.	4BB-\ 4F 4G	.	.	.	.	.
4FFF/ 4FF	.	.	4g/	-ły.	-be	.
.	4BB-\ 4F 4G	.	.	.	.	.
4DD-^^/) 4D-	.	.	4r	.	.	.
.	[<8BB-\ [<8F [>8G	[	.	.	.	.
=26	=26	=26	=26	=26	=26	=26
!	!LO:TX:a:i:t=rall.	!	!	!	!	!
(>4FFF/ 4FF	8BB-\]) 8F] 8G]	.	1r	.	.	.
.	(4BB-\ 4F 4G	>	.	.	.	.
4GGG/ 4GG	.	.	.	.	.	.
.	4BB-\ 4F 4G	.	.	.	.	.
4FFF/ 4FF	.	.	.	.	.	.
.	4BB-\ 4F 4G	.	.	.	.	.
4DD-^^/) 4D-	.	]	.	.	.	.
.	8BB-\) 8F 8G	pp	.	.	.	.
!!LO:LB:g=original
=27	=27	=27	=27	=27	=27	=27
*^	*	*	*	*	*	*
!	!	!LO:TX:b:i:t=a tempo	!LO:DY:rj	!	!	!	!
[2GG/	4CC\	(4En\ 4c	pp <	8r	.	.	.
!	!	!	!	!LO:TX:a:i:t=Poważnie, równo\n(jakby w pochodzi żałobnym)	!	!	!
.	.	.	.	8g/	Za-	Les	.
.	4DD-\	4F\ 4B-	.	8g/	-ni-	hau-	.
.	.	.	.	8g/	-mi	-tes	.
2GG/]	4CC\	4E\ 4c	.	8r	.	.	.
.	.	.	.	8g/	dzie-	mo-	.
.	4BBB-\	4F\) 4d-	[	8g/	-wan-	-lè-	.
.	.	.	.	8g/	-ny	-nes	.
=28	=28	=28	=28	=28	=28	=28	=28
2GG/	4CC\	(4En\ 4c	.	4g/	z piasz-	sui-	.
.	4DD-\	4F\ 4B-	.	8g/	-czys-	-vent	.
.	.	.	.	8g/	-tych	le	.
(<8CC/L 8GG	4CC\	4E\ 4c	.	4g/	wydm	tri-	.
8C/J)	.	.	.	.	.	.	.
(<8BBB-/L	4BBB-\	4F\) 4d-	.	8f/	się	-ste	.
8BB-/J)	.	.	.	8f/	ru-	cor-	.
*	*	*clefG2	*	*	*	*	*
*v	*v	*	*	*	*	*	*
=29	=29	=29	=29	=29	=29	=29
*8ba	*	*	*	*	*	*
*^	*	*	*	*	*	*
(<8AAA-/L	4AAA-\	4E-/ 4c 4e-	.	8a-/	-szy-	-tè-	.
8AA-/J)	.	.	.	8e-/	-ły	-ge	.
(<8FFF/L	4FFF\	4D-/ 4A- 4d-	.	4r	.	.	.
8FF/J)	.	.	.	.	.	.	.
(<8AAA-/L	4AAA-\	4E-/ 4c 4e-	.	4a-/	Z miedz	Et	.
8AA-/J)	.	.	.	.	.	.	.
(8DD-\L	4DD-/	4F/ 4A- 4f	<	8f/	się	les	.
8D-\J)	.	.	.	8g/	ru-	pen-	.
!!LO:PB:g=original
=30	=30	=30	=30	=30	=30	=30	=30
(4AAA-/	8AAA-\L	(>4E-/ 4c 4e-	.	4a-/	-szy-	-sées	.
.	8AA-\J)	.	.	.	.	.	.
(4BBB-/	8BBB-\L	4D-/ 4F 4d-	.	8b-\	-ły	aux	.
.	8BB-\J)	.	.	8d-/	krwa-	yeux	.
(4AAA-/	8AAA-\L	4E-/ 4c 4e-	.	(4e-/	-wni-	d'or	.
.	8AA-\J)	.	.	.	.	.	.
4FFF\	(8FFF/L	4F/) 4A- 4f	[[	4f/)	-ki,	.	.
.	8FF/J)	.	.	.	.	.	.
=31	=31	=31	=31	=31	=31	=31	=31
*	*	*^	*	*^	*	*	*
8EEE-/L	4EEE-\	(4G/ 4e- 4g	2.c\	mp	4g/	8g\	Z po-	Le	.
8EE-/J	.	.	.	.	.	8g\	.	li-	.
8FFF/L	4FFF\	4F/ 4A- 4f	.	.	8f/	4f\	-za	-las	.
8FF/J	.	.	.	.	8f/	.	za-	.	.
8EEE-/L	4EEE-\	4G/ 4e- 4g	.	.	8g/	2ryy	-pło-	quit-	.
8EE-/J	.	.	.	.	8g/	.	-ci	-te	.
*	*	*clefF4	*	*	*	*	*	*	*
8AAA-/L	4AAA-\	4c/)	4C\ 4A-	.	8cc/	.	bez	ses	.
8AA-/J	.	.	.	.	8cc/	.	się	jar-	.
*	*	*	*	*	*v	*v	*	*	*
=32	=32	=32	=32	=32	=32	=32	=32	=32
8EEE-/L	4EEE-\	2.c/	(>4G\ 4e- 4g	pp <	4.g/	ru-	-dins	.
8EE-/J	.	.	.	.	.	.	.	.
8FFF/L	4FFF\	.	4F\ 4A- 4f	.	.	.	.	.
8FF/J	.	.	.	.	8f/	-szył	fleu-	.
8EEE-/L	4EEE-\	.	4G\ 4e- 4g	.	[8g/	dzi-	-ris	.
8EE-/J	.	.	.	.	8g/]	-ki	.	.
8AAA-/L	4AAA-\	4c/	4C\) 4A-	.	8r	.	.	.
8AA-/J	.	.	.	[	8cc\	ta-	Les	.
!!LO:LB:g=original
=33	=33	=33	=33	=33	=33	=33	=33	=33
8DDD-/L	4DDD-\	2.c/	(>4F\ 4A- 4f	>	4.cc\	-ta-	som-	.
8DD-/J	.	.	.	.	.	.	.	.
8EEE-/L	4EEE-\	.	4E-\ 4G 4e-	.	.	.	.	.
8EE-/J	.	.	.	.	8cc\	-rak	-bres	.
8DDD-/L	4DDD-\	.	4F\ 4A- 4f	.	8r	.	.	.
8DD-/J	.	.	.	.	8cc\	za-	fou-	.
8FFF/L	4FFF\	4c/	4C\) 4A-	.	8a-/	-szu-	-gè-	.
8FF/J	.	.	.	]	8a-/	-miał	-res	.
=34	=34	=34	=34	=34	=34	=34	=34	=34
8DDD-/L	4DDD-\	2.c/	(>4F\ 4A- 4f	pp >	4r	.	.	.
8DD-/J	.	.	.	.	.	.	.	.
8EEE-/L	4EEE-\	.	4E-\ 4G 4e-	.	8r	.	.	.
8EE-/J	.	.	.	.	8f/	w wą-	se-	.
8DDD-/L	4DDD-\	.	4F\ 4A- 4f	.	4cc\	-dol-	-lè-	.
8DD-/J	.	.	.	.	.	.	.	.
8FFF/L	4FFF\	4c/	4C\) 4A-	.	4a-/	-cach	-vent	.
8FF/J	.	.	.	]	.	.	.	.
*	*	*v	*v	*	*	*	*	*
=35	=35	=35	=35	=35	=35	=35	=35
*	*	*	*	*^	*	*	*
8GGG/L	4GGG\	(4BB-\ 4F 4B-	<	8r	4ryy	.	.	.
8GG/J	.	.	.	8f/	.	I	et	.
8FFF/L	4FFF\	4C\ 4A- 4c	.	8f/	4ryy	z mu-	se-	.
8FF/J	.	.	.	8f/	.	-łu	-cou-	.
8DDD-/L	4DDD-\	4D-\ 4F 4d-	.	8f/	8ryy	o-	-ant	.
8DD-/J	.	.	.	8f/	16f\	-trzą-	fie-	.
.	.	.	.	.	16f\	.	-re-	.
8FFF/L	4FFF\	4C\) 4A- 4c	.	8f/	4ryy	-sną-	-ment	.
8FF/J	.	.	[	8g/	.	-wszy	leurs	.
!!LO:LB:g=original
=36	=36	=36	=36	=36	=36	=36	=36	=36
8AAA-/L	4AAA-\	(4C\ 4F 4c	<	[8a-/	2ryy	pa-	fe-	.
8AA-/J	.	.	.	4.a-/]	.	-chną-	-uil-	.
8FFF/L	4FFF\	4D-\ 4A- 4d-	.	.	.	.	.	.
8FF/J	.	.	.	.	.	.	.	.
*	*	*	*	*	*cue	*	*	*
!	!	!	!	!LO:TX:a:t=ossia:rj	!	!	!	!
8EEE-/L	4EEE-\	4E-\ 4G 4e-	.	8e-/	8ee-/	-ce	-les	.
8EE-/J	.	.	.	8e-/	8ee-/	ko-	lè-	.
8FFF/L	4FFF\	4D-\) 4A- 4d-	[[	8d-/	8dd-/	-rze-	-gè-	.
8FF/J	.	.	.	8d-/	8dd-/	-nie	-res	.
=37	=37	=37	=37	=37	=37	=37	=37	=37
*	*	*^	*	*	*	*	*	*
8DDD-/L	4DDD-\	(4F\ 4A- 4f	2.c/	mp <	4f/	4ff/	I-	sui-	.
8DD-/J	.	.	.	.	.	.	.	.	.
8EEE-/L	4EEE-\	4E-\ 4G 4e-	.	.	8e-/	8ee-/	-dzie	-vent	.
8EE-/J	.	.	.	.	8e-/	8ee-/	wraz	les	.
8DDD-/L	4DDD-\	4F\ 4A- 4f	.	.	4f/	4ff/	z nie-	au-	.
8DD-/J	.	.	.	.	.	.	.	.	.
8FFF/L	4FFF\	4c/)	4C\ 4A-	.	4a-/	4cc/	-mi	-tres	.
*	*	*	*	*	*	*Xcue	*	*	*
8FF/J	.	.	.	[	.	.	.	.	.
*	*	*	*	*	*v	*v	*	*	*
=38	=38	=38	=38	=38	=38	=38	=38	=38
8CCC/L	4CCC\	(4E-\ 4G 4e-	2.B-/	>	1r	.	.	.
8CC/J	.	.	.	.	.	.	.	.
8DDD-/L	4DDD-\	4D-\ 4F 4d-	.	.	.	.	.	.
8DD-/J	.	.	.	.	.	.	.	.
8CCC/L	4CCC\	4E-\ 4G 4e-	.	.	.	.	.	.
8CC/J	.	.	.	.	.	.	.	.
8EEE-/L	4EEE-\	4B-/)	4BB-\ 4G	.	.	.	.	.
8EE-/J	.	.	.	]	.	.	.	.
*	*	*v	*v	*	*	*	*	*
!!LO:LB:g=original
=39	=39	=39	=39	=39	=39	=39	=39
!	!	!LO:TX:b:i:t=ten.	!	!	!	!	!
8BBBB-/L	4BBBB-\	(1D- 1F 1B- 1d-	pp	4d-/	Z mo-	Les	.
8BBB-/J	.	.	.	.	.	.	.
!	!	!	!	!LO:TX:a:i:t=Od tego miejsca do końca z wzrastającą wciąż siłą i namiętnością	!	!	!
8FFF/L	4FFF\	.	.	8.a-/	-kra-	grands	.
8FF/J	.	.	.	.	.	.	.
.	.	.	.	16g/	-deł	ro-	.
8BBB-/L	4BBB-\	.	.	4f/	kę-	-seaux	.
8BB-/J	.	.	.	.	.	.	.
8FFF/L	4FFF\	.	.	8.e-/	-py	du	.
8FF/J	.	.	.	.	.	.	.
.	.	.	.	16e-/	ro-	ri-	.
*v	*v	*	*	*	*	*	*
*X8ba	*	*	*	*	*	*
*	*clefG2	*	*	*	*	*
=40	=40	=40	=40	=40	=40	=40
*^	*^	*	*^	*	*	*
!LO:TX:b:i:t=loco	!	!	!	!	!	!	!	!	!
8BBB-/L	4BBB-\	1A- 1d- 1a-	4.a-~>/	.	4d-/	2ryy	-go-	-va-	.
8BB-/J	.	.	.	.	.	.	.	.	.
8FF/L	4FF\	.	.	.	4d-/	.	-ży,	-ge	.
8F/J	.	.	8g/	.	.	.	.	.	.
8BB-/L	4BB-\	.	2f/)	.	8r	8ryy	.	.	.
8B-/J	.	.	.	.	8a-/	8r	Z przy-	.	.
8FF/L	4FF\	.	.	.	8a-/	4ryy	-dro-	Les	.
8F/J	.	.	.	.	8a-/	.	-ży	char-	.
*	*	*v	*v	*	*	*	*	*	*
*	*	*	*	*v	*v	*	*	*
=41	=41	=41	=41	=41	=41	=41	=41
8BBB-/L	4BBB-\	(>4A-/ 4d- 4a-	<	4a-/	o-	-dons	.
8BB-/J	.	.	.	.	.	.	.
8CC/L	4CC\	4G/ 4e- 4g	.	8g/	-sty	aux	.
8C/J	.	.	.	8g/	o	é-	.
8BBB-/L	4BBB-\	4A-/ 4d- 4a-	.	4a-/	żół-	-pi-	.
8BB-/J	.	.	.	.	.	.	.
8FFF/L	4FFF\	4B-/ [>4f 4b-	[[	4b-\	-tych	-nes	.
8FF/J	.	.	.	.	.	.	.
*v	*v	*	*	*	*	*	*
!!LO:PB:g=original
=42	=42	=42	=42	=42	=42	=42
*8ba	*	*	*	*	*	*
*^	*	*	*	*	*	*
8BBBB-/L	4BBBB-\	1A-) 1d- 1f] 1a-	>	(8.a-/L	kol-	jau-	.
8BBB-/J	.	.	]	.	.	.	.
.	.	.	.	16g/Jk)	.	.	.
8FFF/L	4FFF\	.	.	4f/	-cach,	-nes	.
8FF/J	.	.	.	.	.	.	.
8BBB-/L	4BBB-\	.	.	8r	.	.	.
8BB-/J	.	.	.	8a-/	sze-	Et	.
8FFF/L	4FFF\	.	.	8a-/	-ro-	les	.
8FF/J	.	.	.	8a-/	-ko	mo-	.
*v	*v	*	*	*	*	*	*
*X8ba	*	*	*	*	*	*
=43	=43	=43	=43	=43	=43	=43
*^	*^	*	*	*	*	*
!LO:TX:b:i:t=loco	!	!	!	!	!	!	!	!
8BBB-/L	4BBB-\	(4A-/ 4d- 4a-	4f\	<	4a-/	list-	-des-	.
8BB-/J	.	.	.	.	.	.	.	.
8EE-/L	4EE-\	4G/ 4e- 4g	2e-\	.	8g/	-ne	-tes	.
8E-/J	.	.	.	.	8g/	ło-	bar-	.
8FF/L	4FF\	4A-/ 4c 4a-	.	.	4a-/	-pia-	-da-	.
8F/J	.	.	.	.	.	.	.	.
8DD-/L	4DD-\	4B-/) 4f 4b-	4d-\	.	4b-\	-ny,	-nes	.
8D-/J	.	.	.	[	.	.	.	.
*v	*v	*	*	*	*	*	*	*
*	*v	*v	*	*	*	*	*
=44	=44	=44	=44	=44	=44	=44
*8ba	*	*	*	*	*	*
*^	*	*	*	*	*	*
!	!	!LO:TX:a:i:t=ten.	!	!	!	!	!
8CCC/L	4CCC\	1c 1e- 1g 1cc	mf	4cc\	sen-	Les	.
8CC/J	.	.	.	.	.	.	.
8GGG/L	4GGG\	.	.	8.cc\	-ne	cam-	.
8GG/J	.	.	.	.	.	.	.
.	.	.	.	16b-\	pod-	-pa-	.
8CC\L	4CC/	.	.	4.g/	-bia-	-nu-	.
8C\J	.	.	.	.	.	.	.
8GGG/L	4GGG\	.	.	.	.	.	.
8GG/J	.	.	.	8g/	-ły	-les	.
*v	*v	*	*	*	*	*	*
*X8ba	*	*	*	*	*	*
!!LO:LB:g=original
=45	=45	=45	=45	=45	=45	=45
*^	*	*	*	*	*	*
!LO:TX:b:i:t=loco	!	!	!	!	!	!	!
8CC/L	4CC\	(>4c/ 4e- 4cc	p <	8.cc\	Fio-	et	.
8C/J	.	.	.	.	.	.	.
.	.	.	.	16cc\	-le-	les	.
8DD-/L	4DD-\	4B-/ 4f 4b-	.	4b-\	-to-	dou-	.
8D-/J	.	.	.	.	.	.	.
8CC/L	4CC\	4c/ 4e- 4cc	.	8cc\	-we	-ces	.
8C/J	.	.	.	8cc\	sza-	per-	.
8BBB-/L	4BBB-\	4d-/) 4b- 4dd-	[	8.dd-\	-le-	-ven-	.
8BB-/J	.	.	mf	.	.	.	.
.	.	.	.	16dd-\	-je,	-ches	.
*v	*v	*	*	*	*	*	*
=46	=46	=46	=46	=46	=46	=46
*8ba	*	*	*	*	*	*
*^	*	*	*^	*	*	*
!	!	!LO:TX:b:i:t=ten.	!	!	!	!	!	!
8CCC/L	4CCC\	1c 1e- 1cc	.	4cc\	2ryy	Cier-	Les	.
8CC/J	.	.	.	.	.	.	.	.
8GGG/L	4GGG\	.	.	8.b-\	.	-ni-	au-	.
8GG/J	.	.	.	.	.	.	.	.
.	.	.	.	16b-\	.	-ste	-bé-	.
8CC\L	4CC/	.	.	4g/	4ryy	gło-	-pi	.
8C\J	.	.	.	.	.	.	.	.
8GGG/L	4GGG\	.	.	4g/	8g\	-gi	-nes	.
8GG/J	.	.	.	.	8g\	.	che	.
*v	*v	*	*	*v	*v	*	*	*
*X8ba	*	*	*	*	*	*
=47	=47	=47	=47	=47	=47	=47
*^	*	*	*	*	*	*
!LO:TX:b:i:t=loco	!	!	!	!	!	!	!
8CC/L	4CC\	(4c/ 4e- 4cc	<	4cc\	wsta-	mi-	.
8C/J	.	.	.	.	.	.	.
8DD-/L	4DD-\	4B-/ 4f 4b-	.	8b-\	-ły	-nent	.
8D-/J	.	.	.	8b-\	i	en	.
8CC/L	4CC\	4c/ 4e- 4cc	.	4cc\	i-	sem-	.
8C/J	.	.	.	.	.	.	.
8BBB-/L	4BBB-\	4e-/ 4g 4ee-	.	4ee-\	-dą,	-ble	.
8BB-/J	.	.	[	.	.	.	.
!!LO:LB:g=original
=48	=48	=48	=48	=48	=48	=48	=48
*	*	*	*^	*	*	*	*
!	!	!	!LO:DY:b	!	!	!	!	!
8AAA-/L	4AAA-\	1f) 1a- 1ff	sf	.	4r	.	.	.
8AA-/J	.	.	.	.	.	.	.	.
!	!	!	!	!	!	!	!	!LO:DY:a:rj
8CC/L	4CC\	.	.	.	8.ff\	liść-	Et	f
8C/J	.	.	.	.	.	.	.	.
.	.	.	.	.	16ee-\	-mi	les	.
!	!	!	!	!LO:HP:a:t=cres_cen_do cres_cen_do:ext=s:ext=ud	!	!	!	!
8AA-/L	4AA-\	.	.	<	8cc\	mięk-	grands	.
8A-/J	.	.	.	.	4cc\	-ki-	sau-	.
8CC/L	4CC\	.	.	.	.	.	.	.
8C/J	.	.	.	.	8cc\	-mi	-les	.
*v	*v	*	*	*	*	*	*	*
=49	=49	=49	=49	=49	=49	=49	=49
!	!	!LO:DY:b	!	!	!	!	!
(8AAA-/L 8AA-	(>4e-/ 4cc 4ee-	f	.	4ee-\	wierzb	quit-	.
8A-/J)	.	<	.	.	.	.	.
(8BBB-/L 8BB-	4d-/ 4f 4dd-	.	.	8dd-\	za-	-tent	.
8B-/J)	.	.	.	8dd-\	-sze-	la-	.
(8AAA-/L 8AA-	4e-/ 4cc 4ee-	.	.	4ee-\	-le-	-ri-	.
8A-/J)	.	.	.	.	.	.	.
(8FFF/L 8FF	4f/) 4a- 4ff	.	.	4a-/	-ściał	-ve	.
8F/J)	.	.	.	.	.	.	.
=50	=50	=50	=50	=50	=50	=50	=50
(8EEE-/L 8EE-	(>4g\ 4ee- 4gg	.	.	4b-\	rząd,	bleue	.
8E-/J)	.	.	.	.	.	.	.
(8FFF/L 8FF	4f\ 4a- 4ff	.	.	8dd-\	w ci-	et	.
8F/J)	.	.	.	8dd-\	-chej	rê-	.
8EEE-/L 8EE-	4g\ 4ee- 4gg	.	.	4ee-\	roz-	-veurs	.
8E-/J	.	.	.	.	.	.	.
8DDD-/L 8DD-	4b-\ 4ff 4bb-	[[	.	4ff\	-pacz-	et	.
8D-/J	.	.	[	.	.	.	.
*	*	*v	*v	*	*	*	*
!!LO:LB:g=original
=51	=51	=51	=51	=51	=51	=51
!	!LO:TX:a:t=subito	!	!	!	!	!
!	!LO:TX:a:t=poco rit.	!	!	!	!	!LO:DY:a:rj
(8BBBB-/L 8BBB-	1dd-^^>) 1gg-X 1ddd-	ff	2gg-X\	-li-	tri-	f
8BB-/J)	.	>	.	.	.	.
(8DDD-/L 8DD-	.	.	.	.	.	.
!LO:TX:a:i:t=poco rit.	!	!	!	!	!	!
8D-/J)	.	.	.	.	.	.
(8AAA-/L 8AA-	.	.	4g-X/	-wej	-stes	.
8A-/J)	.	.	.	.	.	.
!LO:TX:a:i:t=subito	!	!	!	!	!	!
(8BBB-/L 8BB-	.	.	4r	.	.	.
8B-/J)	.	]]	.	.	.	.
=52	=52	=52	=52	=52	=52	=52
*^	*	*	*	*	*	*
!LO:TX:a:i:t=a tempo	!	!LO:TX:a:i:t=a tempo	!	!	!	!	!LO:DY:a:rj
!	!	!LO:TX:a:i:t=poco rit. subito:rj	!	!	!	!	!
8BBB-/L	4BBB-\	(>4F/ 4d- 4f	p	8b-\	su-	sui-	p
8BB-/J	.	.	.	8b-\	-nie	-vent-	.
8CC/L	4CC\	4En/ 4B- 4en	.	[<8b-\	się	-leur	.
8C/J	.	.	.	8b-\]	ża-	.	.
8BBB-/L	4BBB-\	2F/) 2d- 2f	.	4f/	-ło-	rou-	.
8BB-/J	.	.	.	.	.	.	.
8DD-/L	4DD-\	.	.	8f/	-bie.	-te.	.
8D-/J	.	.	.	8r	.	.	.
*v	*v	*	*	*	*	*	*
=53	=53	=53	=53	=53	=53	=53
*Xtuplet	*	*	*	*	*	*
!	!	!	!LO:TX:a:i:t=Niespokojnie.	!	!	!
(12BBB-/L	(>4F/ 4d- 4f	.	4b-\	śla-	Et	.
12BB-/	.	.	.	.	.	.
12BBB-/J)	.	.	.	.	.	.
(12CC/L	4En/ 4B- 4en	.	8b-\	-dem	dans	.
12C/	.	.	.	.	.	.
.	.	.	8b-\	ich	les	.
12CC/J)	.	.	.	.	.	.
(12BBB-/L	2F/) 2d- 2f	.	4b-\	dro-	plai-	.
12BB-/	.	.	.	.	.	.
12BBB-/J)	.	.	.	.	.	.
(12DD-/L	.	.	4f/	-gi	-nes	.
12D-/	.	.	.	.	.	.
12DD-/J)	.	.	.	.	.	.
!!LO:PB:g=original
=54	=54	=54	=54	=54	=54	=54
*	*^	*	*	*	*	*
*	*	*	*^	*	*	*	*
!LO:TX:b:i:t=simile	!	!	!	!LO:HP:a	!LO:TX:t=P:problem=klamra łukowa i 3	!	!	!
(12BBB-/L	(4G-X/ 4g-X	[2d-\ [2f	.	<	12g-X/	Ca-	Les	.
12BB-/	.	.	.	.	12g-/	-łe	champs	.
12BBB-/J)	.	.	.	.	12g-/	rży-	do-	.
(12AAAn/L	4F/ 4f	.	.	.	8f/	-ska-	-rés	.
12AAn/	.	.	.	.	.	.	.	.
.	.	.	.	.	8f/	-mi	de	.
12AAA/J)	.	.	.	.	.	.	.	.
(12BBB-/L	4G-/ 4g-	2d-\] 2f]	.	.	8g-/	za-	fro-	.
12BB-/	.	.	.	.	.	.	.	.
.	.	.	.	.	8g-/	-ście-	-ment	.
12BBB-/J)	.	.	.	.	.	.	.	.
12FFF/L	4Gn/) 4gn	.	.	.	8gn/	-lo-	et	.
!	!	!	!	!LO:HP:a:t=cres_cen_do:ext=ud	!	!	!	!
12FF/	.	.	.	[ <	.	.	.	.
.	.	.	.	.	8g/	-ne	de	.
12FFF/J	.	.	.	.	.	.	.	.
=55	=55	=55	=55	=55	=55	=55	=55	=55
(12BBB-/L	(4G-X/ 4g-X	[2d-\ [2f	.	.	8g-X/	ła-	sei-	.
12BB-/	.	.	.	.	.	.	.	.
.	.	.	.	.	8g-/	-ny	-gle	.
12BBB-/J)	.	.	.	.	.	.	.	.
(12AAAn/L	4F/ 4f	.	.	.	8f/	o-	se	.
12AAn/	.	.	.	.	.	.	.	.
.	.	.	.	.	8f/	-der-	dé-	.
12AAA/J)	.	.	.	.	.	.	.	.
(12BBB-/L	4G-/ 4g-	2d-\] 2f]	.	.	8g-/	-wa-	-ta-	.
12BB-/	.	.	.	.	.	.	.	.
.	.	.	.	.	8g-/	-ły	-chent	.
12BBB-/J)	.	.	.	.	.	.	.	.
!	!	!	!LO:HP:a	!	!	!	!	!
(12FFF/L	4Gn/) 4gn	.	<	.	8gn/	się	de	.
12FF/	.	.	.	.	.	.	.	.
.	.	.	.	.	8g/	w tej	la	.
12FFF/J)	.	.	.	[	.	.	.	.
=56	=56	=56	=56	=56	=56	=56	=56	=56
!	!LO:TX:b:t=acce_le_ran_do:ext=ud	!	!	!	!	!	!	!
(12BBB-/L	4dn^^<\	[<2.A-/ [>2.e- [>2.a-	.	.	8a-/	do-	ter-	.
12BB-/	.	.	.	.	.	.	.	.
.	.	.	.	.	8a-/	-bie	-re	.
12BBB-/J)	.	.	.	.	.	.	.	.
(12AAAn/L	4c^^<\	.	.	.	8r	.	.	.
12AAn/	.	.	.	.	.	.	.	.
.	.	.	.	.	8a-/	od	et	.
12AAA/J)	.	.	.	.	.	.	.	.
(12BBB-/L	4d^^<\	.	.	.	8a-/	ma-	sous	.
12BB-/	.	.	.	.	.	.	.	.
.	.	.	.	.	8a-/	-cie-	le	.
12BBB-/J)	.	.	.	.	.	.	.	.
(12FFF/L	4c^^<\	8.A-/L] 8.e-] 8.a-]	[	.	8.a-/	-rzy-	ciel	.
12FF/	.	.	.	.	.	.	.	.
12FFF/J)	.	.	.	.	.	.	.	.
.	.	16An/Jk 16an	.	.	16an/	-stej	d'o	.
*	*	*	*v	*v	*	*	*	*
!!LO:LB:g=original
=57	=57	=57	=57	=57	=57	=57	=57
(12BBB-^/L	(4B-^/ 4b-	2d-\ 2f	.	8b-\	zie-	ra-	.
12BB-/	.	.	.	.	.	.	.
.	.	.	.	8b-\	-mi.	-ge	.
12BBB-/J)	.	.	f	.	.	.	.
(12AAAn^/L	4An/) 4an	.	<	8r	.	.	.
12AAn/	.	.	.	.	.	.	.
.	.	.	.	8an/	I	Se-	.
12AAA/J)	.	.	.	.	.	.	.
!	!LO:TX:b:t=akcentować każdy akord	!	!	!	!	!	!
(12BBB-^/L	4B-^^/ 4d- 4f 4b-	2ryy	.	4b-\	ni-	-dres-	.
!LO:TX:a:i:t=acce_le_ran_do:ext=ud	!	!	!	!	!	!	!
12BB-/	.	.	.	.	.	.	.
12BBB-/J)	.	.	.	.	.	.	.
(12FFF^/L	4c^^/ 4f 4a 4cc	.	.	8cc\	-by	-sent	.
12FF/	.	.	[	.	.	.	.
.	.	.	.	8cc\	ol-	tel	.
12FFF/J)	.	.	.	.	.	.	.
*	*v	*v	*	*	*	*	*
=58	=58	=58	=58	=58	=58	=58
(12DDD-^/L 12DD-	4d-^^/ 4f-X 4a- 4dd-	.	8dd-\	-brzy-	des	.
12DD-/ 12D-	.	.	.	.	.	.
.	.	.	8dd-\	-mie	mu-	.
12D-/J)	.	.	.	.	.	.
12AAA-^/L 12AA-	4c^^/ 4e- 4a- 4cc	.	8cc\	ścia-	-rail-	.
12AA-/	.	.	.	.	.	.
.	.	.	8cc\	-ny	-les	.
12AA-/J	.	.	.	.	.	.
12DD-^/L 12D-	4d-^^/ 4f- 4a- 4dd-	<	4dd-\	wznio-	hau-	.
12D-/	.	.	.	.	.	.
12D-/J	.	.	.	.	.	.
12AAA-^/L 12AA-	4e-^^/ 4a- 4cc 4ee-	.	8ee-\	-sły	-tes	.
12AA-/	.	.	.	.	.	.
.	.	.	8ee-\	się	et	.
12AA-/J	.	.	.	.	.	.
=59	=59	=59	=59	=59	=59	=59
*	*^	*	*	*	*	*
12EEEn^/L 12EEn	4en^^/ 4gn 4bn 4een	2ryy	.	4een\	w gó-	fiè-	.
12EE/	.	.	.	.	.	.	.
12EE/J	.	.	.	.	.	.	.
12BBBn^/L 12BBn	4f#X^^\ 4b 4dd#X 4ff#X	.	.	8bn\	-rę	-res	.
12BB/	.	.	.	.	.	.	.
.	.	.	.	8b\	i	che-	.
12BB/J	.	.	.	.	.	.	.
*	*v	*v	*	*	*	*	*
*8ba	*	*	*	*	*	*
*	*^	*	*	*	*	*
12EEEn^/L 12EEn	4g^^\ 4b 4ee 4ggn	4ryy	.	4ee\	pły-	-mi-	.
12EE/	.	.	.	.	.	.	.
12EE/J	.	.	.	.	.	.	.
12BBBBn^/L 12BBBn	4b\ 4dd#	8g#X/L 8gg#X	.	8dd#X\	-ną	-nent	.
12BBB/	.	.	.	.	.	.	.
.	.	8an/J 8aan	[	8dd#\	tą	dans	.
!LO:TX:b:i:t=loco	!	!	!	!	!	!	!
12BBB/J	.	.	.	.	.	.	.
*	*v	*v	*	*	*	*	*
*X8ba	*	*	*	*	*	*
!!LO:LB:g=original
=60||	=60||	=60||	=60||	=60||	=60||	=60||
*k[b-e-a-d-g-]	*k[b-e-a-d-g-]	*	*k[b-e-a-d-g-]	*	*	*
*	*	*^	*	*	*	*
*tuplet	*	*	*	*	*	*	*
!LO:TX:t=P:problem=mixed beam	!	!LO:DY:b	!LO:DY:b=2:rj	!	!	!	!
(<12BBBB-^/L 12BBB-	(12b-\L 12ee- 12gg- 12bb-	fff	f	4gg-\	wiel-	l'om-	.
12G-\ 12B- 12e- 12g-	12b-\ 12ee- 12gg- 12bb-	>	.	.	.	.	.
12G-\J) 12B- 12e- 12g-	12b-\J 12ee- 12gg- 12bb-	.	.	.	.	.	.
*tremolo	*tremolo	*	*	*	*	*	*
12G-\L 12B- 12e- 12g-	12b-\L 12ee- 12gg- 12bb-	.	.	4ee-\	-ką	-bre	.
12G-\ 12B- 12e- 12g-	12b-\ 12ee- 12gg- 12bb-	.	.	.	.	.	.
12G-\J 12B- 12e- 12g-	12b-\J 12ee- 12gg- 12bb-	.	.	.	.	.	.
12F\L 12B- 12d- 12f	12b-\L 12ee- 12gg- 12bb-	.	.	4ff\	ża-	my	.
12F\ 12B- 12d- 12f	12b-\ 12ee- 12gg- 12bb-	.	.	.	.	.	.
12F\J 12B- 12d- 12f	12b-\J 12ee- 12gg- 12bb-	.	.	.	.	.	.
12F\L 12B- 12d- 12f	12b-\L 12ee- 12gg- 12bb-	.	.	8b-\	-lu	sté-	.
12F\ 12B- 12d- 12f	12b-\ 12ee- 12gg- 12bb-	.	.	.	.	.	.
.	.	.	.	8b-\	go-	-ri-	.
12F\J 12B- 12d- 12f	12b-\J) 12ee- 12gg- 12bb-	.	.	.	.	.	.
*	*	*v	*v	*	*	*	*
=61	=61	=61	=61	=61	=61	=61
12E-\L 12G- 12c-X 12e-	(12g-\L 12cc-X 12ee- 12gg-	]	2ee-\	-dzi-	-eu-	.
12E-\ 12G- 12c- 12e-	12g-\ 12cc- 12ee- 12gg-	.	.	.	.	.
12E-\J 12G- 12c- 12e-	12g-\J 12cc- 12ee- 12gg-	.	.	.	.	.
12E-\L 12G- 12c- 12e-	12g-\L 12cc- 12ee- 12gg-	.	.	.	.	.
12E-\ 12G- 12c- 12e-	12g-\ 12cc- 12ee- 12gg-	.	.	.	.	.
12E-\J 12G- 12c- 12e-	12g-\J 12cc- 12ee- 12gg-	.	.	.	.	.
!	!LO:TX:t=P:problem=sekstolowe tremolo z cyfrą 6:global	!	!	!	!	!
12E-\L 12G- 12c- 12e-	12g-\L 12cc- 12ee- 12gg-	.	4g-/	-ną!	-se.	.
12E-\ 12G- 12c- 12e-	12g-\ 12cc- 12ee- 12gg-	.	.	.	.	.
12E-\ 12G- 12c- 12e-	12g-\ 12cc- 12ee- 12gg-	.	.	.	.	.
12E-\ 12G- 12c- 12e-	12g-\ 12cc- 12ee- 12gg-	.	8r	.	.	.
12E-\ 12G- 12c- 12e-	12g-\ 12cc- 12ee- 12gg-	.	.	.	.	.
.	.	.	8ee-\	A	Et	.
12E-\J 12G- 12c- 12e-	12g-\J) 12cc- 12ee- 12gg-	.	.	.	.	.
*Xtremolo	*	*	*	*	*	*
=62	=62	=62	=62	=62	=62	=62
*	*	*^	*	*	*	*
!LO:TX:t=P:problem=mixed beam	!	!LO:DY:b	!LO:DY:b=2:rj	!LO:TX:a:i:t=Tempo I. con passione	!	!	!
(<12BBBB-^/L 12BBB-	(12b-\L 12dd- 12ff	ff >	f	4.ff\	Ty,	Toi	.
12B-\ 12d- 12f	12b-\ 12dd- 12ff	.	.	.	.	.	.
12B-\J) 12d- 12f	12b-\J 12dd- 12ff	.	.	.	.	.	.
*tremolo	*	*	*	*	*	*	*
12B-\L 12d- 12f	12b-\L 12dd- 12ff	.	.	.	.	.	.
12B-\ 12d- 12f	12b-\ 12dd- 12ff	.	.	.	.	.	.
.	.	.	.	8ff\	o	Puis-	.
12B-\J 12d- 12f	12b-\J 12dd- 12ff	.	.	.	.	.	.
!	!	!	!	!LO:N:vis=8	!	!	!
12G-\L 12c-X 12e-	12g-\L 12cc-X 12ee-	.	.	[<4ee-\	Bo-	-san-	.
12G-\ 12c- 12e-	12g-\ 12cc- 12ee-	.	.	.	.	.	.
12G-\J 12c- 12e-	12g-\J 12cc- 12ee-	.	.	.	.	.	.
12G-\L 12c- 12e-	12g-\L 12cc- 12ee-	.	.	8.ee-\]	-że	.	.
12G-\ 12c- 12e-	12g-\ 12cc- 12ee-	.	.	.	.	.	.
12G-\J 12c- 12e-	12g-\J) 12cc- 12ee-	]	.	.	.	.	.
.	.	.	.	16ee-\	o	-ce	.
*	*	*v	*v	*	*	*	*
*Xtremolo	*	*	*	*	*	*
=63	=63	=63	=63	=63	=63	=63
!LO:TX:t=P:problem=mixed beam	!	!LO:DY:b=2:rj	!	!	!	!
(<12BBBB-^/L 12BBB-	(12b-\L 12dd- 12ff	f >	4ff\	nie-	é-	.
12B-\ 12d- 12f	12b-\ 12dd- 12ff	.	.	.	.	.
12B-\J) 12d- 12f	12b-\J 12dd- 12ff	.	.	.	.	.
*tremolo	*	*	*	*	*	*
12B-\L 12d- 12f	12b-\L 12dd- 12ff	.	4ff\	-śmier-	-ter-	.
12B-\ 12d- 12f	12b-\ 12dd- 12ff	.	.	.	.	.
12B-\J 12d- 12f	12b-\J 12dd- 12ff	.	.	.	.	.
12G-\L 12c-X 12e-	12g-\L 12cc-X 12ee-	.	4.ee-\	-tel-	-nel-	.
12G-\ 12c- 12e-	12g-\ 12cc- 12ee-	.	.	.	.	.
12G-\J 12c- 12e-	12g-\J 12cc- 12ee-	.	.	.	.	.
12G-\L 12c- 12e-	12g-\L 12cc- 12ee-	.	.	.	.	.
12G-\ 12c- 12e-	12g-\ 12cc- 12ee-	.	.	.	.	.
.	.	.	8ee-\	-ny	-le	.
12G-\J 12c- 12e-	12g-\J) 12cc- 12ee-	]	.	.	.	.
*Xtremolo	*	*	*	*	*	*
!!LO:LB:g=original
=64	=64	=64	=64	=64	=64	=64
*	*	*^	*	*	*	*
!LO:TX:t=P:problem=mixed beam	!	!LO:DY:b=2:rj	!LO:HP:a	!	!	!	!
12BBBB-^/ 12BBB-	(>12e-/L 12g- 12dd-	sf	sff >	4dd-\	Wień-	Sour-	.
(12E-\L 12G- 12d-	12e-/ 12g- 12dd-	.	.	.	.	.	.
12E-\J 12G- 12d-	12e-/J 12g- 12dd-	.	.	.	.	.	.
*tremolo	*	*	*	*	*	*	*
12E-\L 12G- 12d-	12e-/L 12g- 12dd-	.	.	4dd-\	-cem	-ce	.
12E-\ 12G- 12d-	12e-/ 12g- 12dd-	.	.	.	.	.	.
12E-\J 12G- 12d-	12e-/J 12g- 12dd-	.	.	.	.	.	.
12D-\L 12G- 12B-	12d-/L 12g- 12b-	.	.	[<4b-\	bla-	de	.
12D-\ 12G- 12B-	12d-/ 12g- 12b-	.	.	.	.	.	.
12D-\J 12G- 12B-	12d-/J 12g- 12b-	.	.	.	.	.	.
12D-\L 12G- 12B-	12d-/L 12g- 12b-	.	.	8b-\]	-sków	.	.
12D-\ 12G- 12B-	12d-/ 12g- 12b-	.	.	.	.	.	.
.	.	.	.	8b-\	o-	lu-	.
12D-\J) 12G- 12B-	12d-/J) 12g- 12b-	.	.	.	.	.	.
*Xtremolo	*	*	*	*	*	*	*
=65	=65	=65	=65	=65	=65	=65	=65
*	*	*	*^	*	*	*	*
!LO:TX:t=P:problem=mixed beam	!	!LO:DY:b=2:rj	!	!LO:DY:b	!LO:TX:a:i:t=ten.	!	!	!
12BBBB-^/ 12BBB-	(>12e-/L 12g- 12dd-	sf	.	sff	2dd-\	-wi-	-miè-	.
(12E-\L 12G- 12d-	12e-/ 12g- 12dd-	.	.	.	.	.	.	.
12E-\J 12G- 12d-	12e-/J 12g- 12dd-	.	.	.	.	.	.	.
*tremolo	*	*	*	*	*	*	*	*
12E-\L 12G- 12d-	12e-/L 12g- 12dd-	.	.	.	.	.	.	.
12E-\ 12G- 12d-	12e-/ 12g- 12dd-	.	.	.	.	.	.	.
12E-\J 12G- 12d-	12e-/J 12g- 12dd-	.	.	.	.	.	.	.
12D-\L 12G- 12B-	12d-/L 12g- 12b-	.	.	.	[<4.b-\	-ty,	-re	.
12D-\ 12G- 12B-	12d-/ 12g- 12b-	.	.	.	.	.	.	.
12D-\J 12G- 12B-	12d-/J 12g- 12b-	.	.	.	.	.	.	.
12D-\L 12G- 12B-	12d-/L 12g- 12b-	.	.	.	.	.	.	.
12D-\ 12G- 12B-	12d-/ 12g- 12b-	.	.	.	.	.	.	.
.	.	.	.	.	8b-\]	na	.	.
12D-\J) 12G- 12B-	12d-/J) 12g- 12b-	.	]]	.	.	.	.	.
*	*	*	*v	*v	*	*	*	*
*	*	*v	*v	*	*	*	*
*Xtremolo	*	*	*	*	*	*
=66	=66	=66	=66	=66	=66	=66
*8ba	*	*	*	*	*	*
!	!	!LO:HP:a	!	!	!	!
(<4EEEn/ 4EEn	12A-/L 12B- 12dn 12a-	mf <	4.a-/	nie	qui	.
.	12A-/ 12B- 12d 12a-	.	.	.	.	.
.	12A-/ 12B- 12d 12a-	.	.	.	.	.
4FFF/ 4FF	12A-/ 12B- 12d 12a-	.	.	.	.	.
.	12A-/ 12B- 12d 12a-	.	.	.	.	.
.	.	.	8a-/	do-	re-	.
.	12A-/J 12B- 12d 12a-	.	.	.	.	.
!	!LO:TX:a:i:t=acce_le_ran_do:ext=ud	!	!	!	!	!
2AAA-\) 2AA-	12F/L 12c-X 12e- 12f	.	4.f/	-stęp-	-po-	.
.	12F/ 12c- 12e- 12f	.	.	.	.	.
.	12F/ 12c- 12e- 12f	.	.	.	.	.
.	12F/ 12c- 12e- 12f	.	.	.	.	.
.	12F/ 12c- 12e- 12f	.	.	.	.	.
.	.	.	8b-\	-nym	-ses	.
.	12F/J 12c- 12e- 12f	.	.	.	.	.
=67	=67	=67	=67	=67	=67	=67
(<4EEEn/ 4EEn	12A-/L 12B- 12dn 12a-	.	4.a-/	tro-	sur	.
.	12A-/ 12B- 12d 12a-	.	.	.	.	.
.	12A-/ 12B- 12d 12a-	.	.	.	.	.
4FFF/ 4FF	12A-/ 12B- 12d 12a-	.	.	.	.	.
.	12A-/ 12B- 12d 12a-	.	.	.	.	.
.	.	.	8a-/	-nie	ton	.
.	12A-/J 12B- 12d 12a-	.	.	.	.	.
2AAA-\) 2AA-	12F/L 12c-X 12e- 12f	.	4f/	sie-	trô-	.
.	12F/ 12c- 12e- 12f	.	.	.	.	.
.	12F/ 12c- 12e- 12f	.	.	.	.	.
.	12F/ 12c- 12e- 12f	.	8cc-X\	-dzisz	-ne	.
.	12F/ 12c- 12e- 12f	.	.	.	.	.
.	.	.	8cc-\	po-	se-	.
.	12F/J 12c- 12e- 12f	[[	.	.	.	.
!!LO:PB:g=original
=68	=68	=68	=68	=68	=68	=68
!	!	!LO:HP:a	!	!	!	!
(<4GGG#X/ 4FF#X	12B-/L 12d- 12f 12b-	<	4b-\	-mię-	-mé	.
.	12B-/ 12d- 12f 12b-	.	.	.	.	.
.	12B-/ 12d- 12f 12b-	.	.	.	.	.
4GGGn/ 4GGn	12B-/ 12d- 12f 12b-	.	[<8b-\	-dzy	d'e-	.
.	12B-/ 12d- 12f 12b-	.	.	.	.	.
.	.	.	8b-\]	gwiaz-	.	.
.	12B-/J 12d- 12f 12b-	.	.	.	.	.
!	!	!LO:HP:a:t=crescendo	!	!	!	!
2BBB-\) 2BB-	12Gn/L 12d- 12f 12gn	[ <	4gn/	-da-	-toi-	.
.	12G/ 12d- 12f 12g	.	.	.	.	.
.	12G/ 12d- 12f 12g	.	.	.	.	.
.	12G/ 12d- 12f 12g	.	8cc\	-mi!	-les,	.
.	12G/ 12d- 12f 12g	.	.	.	.	.
.	.	.	8cc\	I	Un	.
.	12G/J 12d- 12f 12g	.	.	.	.	.
=69	=69	=69	=69	=69	=69	=69
!	!	!LO:HP:a	!	!	!	!
(<4GGG#X/ 4FF#X	12B-/L 12d- 12f 12b-	<	4b-\	gło-	nim-	.
.	12B-/ 12d- 12f 12b-	.	.	.	.	.
.	12B-/ 12d- 12f 12b-	.	.	.	.	.
4GGGn/ 4GGn	12B-/ 12d- 12f 12b-	.	4b-\	-wą	-be	.
.	12B-/ 12d- 12f 12b-	.	.	.	.	.
.	12B-/J 12d- 12f 12b-	.	.	.	.	.
!	!LO:TX:a:i:t=accel.	!	!	!	!	!
2BBB-\) 2BB-	12Gn/L 12d- 12f 12gn	[	4.gn/	na	de	.
.	12G/ 12d- 12f 12g	.	.	.	.	.
.	12G/ 12d- 12f 12g	.	.	.	.	.
.	12G/ 12d- 12f 12g	.	.	.	.	.
.	12G/ 12d- 12f 12g	.	.	.	.	.
.	.	.	8dd-\	zło-	so-	.
.	12G/J 12d- 12f 12g	.	.	.	.	.
=70	=70	=70	=70	=70	=70	=70
!	!	!LO:HP:a:t=crescendo	!	!	!	!
(4GGG#/ 4GG#	12c/L 12e- 12gn 12cc	<	4cc\	-ci-	-leil	.
.	12c/ 12e- 12g 12cc	.	.	.	.	.
.	12c/ 12e- 12g 12cc	.	.	.	.	.
4AAAn\ 4AAn	12c/ 12e- 12g 12cc	.	[<8cc\	-stym	au	.
.	12c/ 12e- 12g 12cc	.	.	.	.	.
.	.	.	8cc\]	spo-	.	.
.	12c/J 12e- 12g 12cc	.	.	.	.	.
!	!	!LO:HP:a	!	!	!	!
4CC\ 4C	12An/L 12e- 12g 12an	<	4an/	-czą-	tour	.
.	12A/ 12e- 12g 12a	.	.	.	.	.
.	12A/J 12e- 12g 12a	.	.	.	.	.
4AAA\) 4AA	12e-/L 12g 12cc 12ee-	.	8ee-\	-wszy	de	.
.	12e-/ 12g 12cc 12ee-	.	.	.	.	.
.	.	.	8ee-\	trój-	ta	.
.	12e-/J 12g 12cc 12ee-	.	.	.	.	.
=71	=71	=71	=71	=71	=71	=71
*	*	*	*^	*	*	*
*	*	*^	*	*	*	*	*
(4AAA#X\ 4AA#X	12dn/L 12f 12an 12ddn	.	.	2ddn/	2ryy	-ką-	tê-	.
.	12d/ 12f 12a 12dd	.	.	.	.	.	.	.
.	12d/ 12f 12a 12dd	.	.	.	.	.	.	.
4BBBn\ 4BBn	12d/ 12f 12a 12dd	.	.	.	.	.	.	.
.	12d/ 12f 12a 12dd	.	.	.	.	.	.	.
.	12d/J 12f 12a 12dd	.	.	.	.	.	.	.
4DDn\) 4Dn	12Bn/L 12f 12a 12bn	.	.	4bn/	4ryy	-cie	-te	.
.	12B/ 12f 12a 12b	.	.	.	.	.	.	.
.	12B/J 12f 12a 12b	.	.	.	.	.	.	.
*	*Xtremolo	*	*	*	*	*	*	*
!LO:TX:b:i:t=loco	!	!LO:DY:b	!LO:DY:b=2:rj	!	!	!	!	!
4GGG-X^^\ 4GG-X	4b-X^^\ 4dd-X 4ff-X 4bb-X	[ sff	sff	4rff	8r	.	.	.
!	!	!	!	!	!LO:N:cue	!	!	!
.	.	.	.	.	8b-X\	.	la	.
*	*	*v	*v	*	*	*	*	*
*	*	*	*v	*v	*	*	*
*X8ba	*	*	*	*	*	*
!!LO:LB:g=original
=72	=72	=72	=72	=72	=72	=72
*	*Xtuplet	*	*	*	*	*
4FFF^^/ 4BBB- 4DD- 4FF	N(12bb-\L 12ddd- 12fff	.	(2.ff\	Krzyż	croix	.
.	12ff\	.	.	.	.	.
.	12ff\J	.	.	.	.	.
!	!LO:TX:t=P:problem=mixed beam	!	!	!	!	!
4ryy	12f\L	.	.	.	.	.
.	12f\	.	.	.	.	.
.	12F</J	.	.	.	.	.
*Xtuplet	*	*	*	*	*	*
12F/L	4ryy	.	.	.	.	.
12FF/	.	.	.	.	.	.
12FFF/J 12FF	.	.	.	.	.	.
4GGG-/N) 4GG-	(>4B-/ 4d- 4b-	.	4b-\)	.	.	.
=73||	=73||	=73||	=73||	=73||	=73||	=73||
*M6/4	*M6/4	*	*M6/4	*	*	*
!	!LO:TX:b:i:t=sostenuto\n sempre	!	!LO:TX:a:i:t=Meno mosso	!	!	!
4FFF/ 4FF	4B-/ 4d- 4a- 4b-	.	4b-\	trój-	lu-	.
4EEE-/ 4EE-	4B-/ 4d- 4g- 4b-	ff	4b-\	-ra-	-mi	.
(2EE-^^>/ 2C 2G-	2An^^/ 2c 2g- 2an	.	2an/	-mien-	neu-	.
4DD-/) 4BB- 4F	4B-/) 4f 4b-	.	2b-\	-ny	-se	.
4GGG-/ 4GG-	(>4B-/ 4b-	.	.	.	.	.
=74||	=74||	=74||	=74||	=74||	=74||	=74||
*M4/4	*M4/4	*	*M4/4	*	*	*
*met(c)	*met(c)	*	*met(c)	*	*	*
4FFF/ 4FF	4B-/ 4d- 4a- 4b-	.	2b-\	ma-	a	.
4EEE-/ 4EE-	4B-/ 4d- 4g- 4b-	.	.	.	.	.
2EE-^^/ 2C 2G-	2An^^/) 2c 2g- 2an	.	2an/	-jąc	tes	.
!!LO:LB:g=original
=75||	=75||	=75||	=75||	=75||	=75||	=75||
*M6/4	*M6/4	*	*M6/4	*	*	*
*	*^	*	*	*	*	*
!	!	!	!LO:HP:a	!	!	!	!
(<4EEn/ 4D- 4Gn	(>4B-/ 4d- 4gn 4b-	2ryy	<	(4b-\	u	di-	.
4GG-/ 4F-X 4B-	4c/ 4g-X 4cc	.	.	4cc\)	.	.	.
!	!	!	!LO:HP:a	!	!	!	!
2BB-\ 2F- 2G-X	2d-/ 2g- 2dd-	2ryy	[ >	2dd-\	swych	-vins	.
2C\) 2G- 2B-	2b-/)	4e-\ 4ee-	.	(4cc\	nóg,	pieds	.
.	.	4en\ 4een	]	4b-\)	.	.	.
*	*v	*v	*	*	*	*	*
=76||	=76||	=76||	=76||	=76||	=76||	=76||
*M4/4	*M4/4	*	*M4/4	*	*	*
*met(c)	*met(c)	*	*met(c)	*	*	*
!	!	!	!LO:TX:a:i:t=Tempo I.	!	!	!
(>8qFFF/ 8qFF	.	.	.	.	.	.
*tremolo	*tremolo	*	*	*	*	*
(12F\L) 12B- 12d-	(12f\L 12b- 12dd- 12ff	.	4ff\	proch	Ra-	.
12F\ 12B- 12d-	12f\ 12b- 12dd- 12ff	.	.	.	.	.
12F\J 12B- 12d-	12f\J 12b- 12dd- 12ff	.	.	.	.	.
12G-\L 12c-X 12e-	12g-\L 12cc-X 12ee-	.	4ee-\	z gwiazd	-dieux	.
12G-\ 12c- 12e-	12g-\ 12cc- 12ee-	.	.	.	.	.
12G-\J 12c- 12e-	12g-\J 12cc- 12ee-	.	.	.	.	.
12G-\L 12c- 12e-	12g-\L 12cc- 12ee-	.	8r	.	.	.
12G-\ 12c- 12e-	12g-\ 12cc- 12ee-	.	.	.	.	.
.	.	.	8ee-\	w kle-	tu	.
12G-\ 12c- 12e-	12g-\ 12cc- 12ee-	.	.	.	.	.
12G-\ 12c- 12e-	12g-\ 12cc- 12ee-	.	8ee-\	-psy-	con-	.
12G-\ 12c- 12e-	12g-\ 12cc- 12ee-	.	.	.	.	.
.	.	.	8ee-\	-drze	-tem	.
!	!	!LO:HP:a	!	!	!	!
12G-\J) 12c- 12e-	12g-\J) 12cc- 12ee-	>	.	.	.	.
*	*clefF4	*	*	*	*	*
=77	=77	=77	=77	=77	=77	=77
*	*	*^	*	*	*	*
!	!LO:TX:a:i:t=rall.	!	!	!	!	!	!
!	!LO:TX:b:i:t=Allargando	!	!	!	!	!	!
(12BB-/L 12D-	(>12F\L 12B- 12d- 12f	.	.	8f/	prze-	ples	.
12BB-/ 12D-	12F\ 12B- 12d- 12f	.	.	.	.	.	.
!	!	!	!	!LO:TX:a:i:t=rall.	!	!	!
.	.	.	.	8f/	-sy-	pas-	.
12BB-/ 12D-	12F\ 12B- 12d- 12f	.	.	.	.	.	.
12BB-/ 12D-	12F\ 12B- 12d- 12f	]	.	8f/	-pu-	-ser	.
!	!	!LO:DY:b	!	!	!	!	!
12BB-/ 12D-	12F\ 12B- 12d- 12f	mf	.	.	.	.	.
.	.	.	.	8f/	-jesz	les	.
12BB-/J 12D-	12F\J 12B- 12d- 12f	.	.	.	.	.	.
!	!	!	!LO:HP:a	!	!	!	!
12GG-/L 12C-X	12E-\L 12G- 12c-X 12e-	<	<	4e-/	zło-	siè-	.
12GG-/ 12C-	12E-\ 12G- 12c- 12e-	.	.	.	.	.	.
12GG-/J 12C-	12E-\J 12G- 12c- 12e-	.	.	.	.	.	.
*Xtremolo	*Xtremolo	*	*	*	*	*	*
12GG-/L) 12BB-	12E-\L) 12B- 12e-	.	.	4b-\	-tej	-cles	.
*	*clefG2	*	*	*	*	*	*
(12GGG-/ 12GG-	12B-\ 12d- 12b-	.	.	.	.	.	.
12FFF/J) 12FF	12B-\J 12d- 12b-	[	.	.	.	.	.
*	*	*v	*v	*	*	*	*
!!LO:LB:g=original
=78||	=78||	=78||	=78||	=78||	=78||	=78||
*M6/4	*M6/4	*	*M6/4	*	*	*
*8ba	*	*	*	*	*	*
!	!	!LO:DY:rj	!LO:TX:a:i:t=Sostenuto.	!	!	!
!	!	!LO:HP:a	!	!	!	!
(<4EEEn/ 4DD- 4GG-	(>4B-/ 4d- 4b-	ff <	(<4b-\	Zmi-	Sei-	.
4GGG-/ 4FF-X 4BB-	4c/ 4g- 4cc	.	4cc\)	-łuj	.	.
2BBB-\ 2FF- 2GG- 2D-	2d-/ 2g- 2dd-	.	2dd-\	się	-gneur	.
*X8ba	*	*	*	*	*	*
!LO:TX:b:i:t=loco	!	!	!	!	!	!
4CC/ 4BB- 4E-	4c/ 4g- 4cc	.	4ee-\	zmi-	aie	.
4DD-/) 4BB- 4Fn	4B-/) 4d- 4f 4b-	[[	4dd-\	-łuj	pi-	.
=79	=79	=79	=79	=79	=79	=79
*8ba	*	*	*	*	*	*
*	*^	*	*	*	*	*
(2GGG-^>/ 2GG-	2An^>/ 2c 2e- 2an	2ryy	fff	2cc\	nad	-tié	.
!	!LO:TX:b:i:t=ten.	!	!LO:HP:a	!LO:TX:a:i:t=ten.	!	!	!
4.FFF^>/ 4.FF	2B-^>/ 2d- 2f 2b-	4.raa	<	1b-	na-	de	.
*	*clefF4	*	*	*	*	*	*
8EEE-^>/ 8EE-	.	8E-^>/	.	.	.	.	.
4DDD-^>/ 4DD-	4ryy	4D-^>/	.	.	.	.	.
4CCC^>/) 4CC	4ryy	4C^>/	[	.	.	.	.
=80	=80	=80	=80	=80	=80	=80	=80
*^	*	*	*	*	*	*	*
*	*	*	*	*^	*	*	*	*
!	!	!	!	!LO:DY:b	!LO:DY:b=2:rj	!LO:TX:a:i:t=Allarg.:rj	!	!	!
2r	1.BBBB- 1.BBB-	2r	1.BB-	sff	sff	2b-\	-mi!	nous.	.
[<1FF^ [1BB- [1D- [1F	.	[1B- [1d- [1f [1b-	.	.	.	1r	.	.	.
*	*	*	*	*v	*v	*	*	*	*
=81	=81	=81	=81	=81	=81	=81	=81	=81
2FF/] 2BB-] 2D-] 2F]	1.BBBB- 1.BBB-	2B-/] 2d-] 2f] 2b-]	1.BB-	sff	1.r	.	.	.
[1FF^ [1BB- [1D-	.	[<1F^ [1B- [1d- [1f	.	.	.	.	.	.
=82	=82	=82	=82	=82	=82	=82	=82	=82
*	*	*	*	*^	*	*	*	*
!	!	!	!	!LO:DY:b	!LO:DY:b=2:rj	!	!	!	!
2FF/] 2BB-] 2D-]	1.BBBB- 1.BBB-	2F/] 2B-] 2d-] 2f]	1.BB-	sff	sff	1.r	.	.	.
[1FF^ [1BB- [1D-	.	[1F^ [1B- [1d- [1f	.	.	.	.	.	.	.
*	*	*	*	*v	*v	*	*	*	*
*v	*v	*	*	*	*	*	*	*
*	*v	*v	*	*	*	*	*
=83	=83	=83	=83	=83	=83	=83
1.BBBB-; 1.BBB- 1.FF] 1.BB-] 1.D-]	1.F;] 1.B-] 1.d-] 1.f]	.	1.r	.	.	.
*X8ba	*	*	*	*	*	*
==	==	==	==	==	==	==
*-	*-	*-	*-	*-	*-	*-
!!!system-decoration: s1{(s2,s3)}
!!!RDF**kern: < = below
!!!RDF**kern: > = above
!!!RDF**kern: N = linked
!!!ENC: Anastazja Marusiak
!!!END: 2023-09-23
!!!EED: Marta Chmielewska
!!!EEV: 2023-10-17
